X: 14729
T: Gan Ainm
R: polka
M: 2/4
K: Gmajor
F/G/|Bd AB|GE/G/ E/D/C/B,/|DG G/F/G/A/|BA AG/A/|
Bd AB|GE/G/ E/D/C/B,/|DG G/F/G/A/|BG G:|
e|dG Ge|dG Ge|dG c/B/A/G/|FA Ae|
dG Ge|dG GB|ce d/e/d/c/|BG Ge|
dG Ge|dG Ge|dG c/B/A/G/|FA AG/A/|
Bd AB|GE/G/ E/D/C/B,/|DG G/F/G/A/|BG G||

